icons/svg/amenity/service_tyres.svg

<?xml version="1.0" encoding="UTF-8" standalone="no"?>
<!-- Created with Inkscape (http://www.inkscape.org/) -->

<svg
   xmlns:dc="http://purl.org/dc/elements/1.1/"
   xmlns:cc="http://creativecommons.org/ns#"
   xmlns:rdf="http://www.w3.org/1999/02/22-rdf-syntax-ns#"
   xmlns:svg="http://www.w3.org/2000/svg"
   xmlns="http://www.w3.org/2000/svg"
   xmlns:xlink="http://www.w3.org/1999/xlink"
   xmlns:sodipodi="http://sodipodi.sourceforge.net/DTD/sodipodi-0.dtd"
   xmlns:inkscape="http://www.inkscape.org/namespaces/inkscape"
   version="1.0"
   width="580"
   height="580"
   id="svg2"
   sodipodi:version="0.32"
   inkscape:version="0.48.4 r9939"
   sodipodi:docname="service_tyres.svg"
   inkscape:output_extension="org.inkscape.output.svg.inkscape">
  <metadata
     id="metadata10">
    <rdf:RDF>
      <cc:Work
         rdf:about="">
        <dc:format>image/svg+xml</dc:format>
        <dc:type
           rdf:resource="http://purl.org/dc/dcmitype/StillImage" />
        <cc:license
           rdf:resource="http://web.resource.org/cc/PublicDomain" />
        <dc:language>en</dc:language>
        <dc:title />
      </cc:Work>
    </rdf:RDF>
  </metadata>
  <sodipodi:namedview
     inkscape:window-height="1004"
     inkscape:window-width="1920"
     inkscape:pageshadow="2"
     inkscape:pageopacity="0.0"
     guidetolerance="10.0"
     gridtolerance="10.0"
     objecttolerance="10.0"
     borderopacity="1.0"
     bordercolor="#666666"
     pagecolor="#ffffff"
     id="base"
     showgrid="false"
     inkscape:zoom="0.70710678"
     inkscape:cx="716.1038"
     inkscape:cy="312.02604"
     inkscape:window-x="1680"
     inkscape:window-y="0"
     inkscape:current-layer="svg2"
     inkscape:window-maximized="1" />
  <defs
     id="defs4">
    <clipPath
       id="clipoutline2"
       clipPathUnits="userSpaceOnUse">
      <path
         d="M 55.8,12 L 56.56,12.16 C 65.4,9.22 85.24,20.8 80.82,31.12 C 79.7,32.74 79.89,35.62 81.24,37.43 L 56.43,62.25 C 55.04,60.86 51.95,60.89 50.53,62.25 L 9.5,101.63 C 5.76,105.22 8.7,108.27 10.28,109.88 L 17.64,117.24 C 19.25,118.84 23.5,121 26.52,117.8 L 65.24,76.99 C 66.59,75.57 66.6,72.52 65.24,71.12 C 65.24,71.12 65.25,71.1 65.24,71.1 L 90.15,46.2 C 92.78,48.57 95.263827,48.774854 97.62,48.13 C 102.17057,46.884568 104.70725,51.336643 107.43,54.59 L 106.2,55.8 C 104.38,57.64 104.55,60.74 106.59,62.78 C 108.63,64.82 111.74,64.99 113.56,63.17 L 121.7,55.04 C 123.52,53.2 123.35,50.1 121.3,48.07 C 119.46,46.22 116.79,45.98 114.93,47.3 C 109.35,41.04 112.28,40.1 104.92,31.95 L 91.13,17.86 C 81.2,8.12 68.3,8.13 55.8,12 z"
         id="outline2" />
    </clipPath>
    <clipPath
       id="clipoutline1"
       clipPathUnits="userSpaceOnUse">
      <path
         d="M 22.42,17.2 L 35.38,30.15 L 32.88,38.93 L 24.1,41.43 L 11.14,28.47 L 5.28,34.33 L 20.17,55.79 L 37.73,52.45 L 99.36,118.07 C 108.8,127.58 121.53,113.32 112.7,105.2 L 46.85,42.92 L 50.86,25.16 L 28.72,10.89 L 22.42,17.2 z M 103.48,109.17 C 105.16,107.49 107.88,107.49 109.56,109.17 C 111.24,110.85 111.24,113.57 109.56,115.25 C 107.88,116.92 105.16,116.92 103.48,115.25 C 101.8,113.57 101.8,110.85 103.48,109.17 z"
         id="outline1" />
    </clipPath>
    <inkscape:perspective
       sodipodi:type="inkscape:persp3d"
       inkscape:vp_x="0 : 290 : 1"
       inkscape:vp_y="0 : 1000 : 0"
       inkscape:vp_z="580 : 290 : 1"
       inkscape:persp3d-origin="290 : 193.33333 : 1"
       id="perspective12" />
    <style
       type="text/css"
       id="style6">
   
    .fil0 {fill:#EF7900}
   
  </style>
    <inkscape:perspective
       id="perspective6807"
       inkscape:persp3d-origin="29.116032 : 19.410688 : 1"
       inkscape:vp_z="58.232063 : 29.116032 : 1"
       inkscape:vp_y="0 : 1000 : 0"
       inkscape:vp_x="0 : 29.116032 : 1"
       sodipodi:type="inkscape:persp3d" />
    <inkscape:perspective
       id="perspective6954"
       inkscape:persp3d-origin="290 : 193.33333 : 1"
       inkscape:vp_z="580 : 290 : 1"
       inkscape:vp_y="0 : 1000 : 0"
       inkscape:vp_x="0 : 290 : 1"
       sodipodi:type="inkscape:persp3d" />
    <marker
       viewBox="0 0 10 10"
       refY="5"
       refX="10"
       orient="auto"
       markerWidth="4"
       markerUnits="strokeWidth"
       markerHeight="3"
       id="ArrowStart">
      <path
         id="path2295"
         d="M 10 0 L 0 5 L 10 10 z" />
    </marker>
    <marker
       viewBox="0 0 10 10"
       refY="5"
       refX="0"
       orient="auto"
       markerWidth="4"
       markerUnits="strokeWidth"
       markerHeight="3"
       id="ArrowEnd">
      <path
         id="path2292"
         d="M 0 0 L 10 5 L 0 10 z" />
    </marker>
    <inkscape:perspective
       id="perspective7597"
       inkscape:persp3d-origin="178.5405 : 158.483 : 1"
       inkscape:vp_z="357.08099 : 237.7245 : 1"
       inkscape:vp_y="0 : 1000 : 0"
       inkscape:vp_x="0 : 237.7245 : 1"
       sodipodi:type="inkscape:persp3d" />
    <clipPath
       id="clipoutline1-8"
       clipPathUnits="userSpaceOnUse">
      <path
         inkscape:connector-curvature="0"
         d="m 22.42,17.2 12.96,12.95 -2.5,8.78 -8.78,2.5 -12.96,-12.96 -5.86,5.86 14.89,21.46 17.56,-3.34 61.63,65.62 c 9.44,9.51 22.17,-4.75 13.34,-12.87 L 46.85,42.92 50.86,25.16 28.72,10.89 22.42,17.2 z m 81.06,91.97 c 1.68,-1.68 4.4,-1.68 6.08,0 1.68,1.68 1.68,4.4 0,6.08 -1.68,1.67 -4.4,1.67 -6.08,0 -1.68,-1.68 -1.68,-4.4 0,-6.08 z"
         id="outline1-1" />
    </clipPath>
  </defs>
  <g
     id="g1327"
     transform="translate(0.5,-0.5)">
    <path
       d="M 66.275,1.768 C 24.94,1.768 1.704,23.139 1.704,66.804 l 0,450.123 c 0,40.844 20.894,62.229 62.192,62.229 l 452.024,0 c 41.307,0 62.229,-20.316 62.229,-62.229 l 0,-450.123 c 0,-42.601 -20.922,-65.036 -63.522,-65.036 -0.003,0 -448.494,-0.143 -448.352,0 z"
       style="fill:#111111;stroke:#eeeeee;stroke-width:3.40799999"
       id="path1329"
       inkscape:connector-curvature="0" />
  </g>
  <g
     id="g2319"
     transform="translate(879.29125,36.805119)">
    <path
       id="path2323"
       style="fill:#ffffff;stroke:none"
       d="" />
  </g>
  <g
     id="g2325"
     transform="translate(879.29125,36.805119)">
    <path
       id="path2329"
       style="fill:#ffffff;stroke:none"
       d="" />
  </g>
  <path
     style="color:#000000;fill:#ffffff;fill-opacity:1;fill-rule:nonzero;stroke:none;stroke-width:19.89999962;marker:none;visibility:visible;display:inline;overflow:visible;enable-background:accumulate"
     d="m 169.49701,71.149823 c -2.62809,0.007 -5.02318,0.0461 -7.10599,0.0628 -1.09775,4.51973 -5.13186,7.86059 -9.99868,7.86059 l -24.87093,0 c -8.37416,4.40759 -16.20311,10.62364 -23.42458,18.4567 l 9.40127,0 c 5.71516,0 10.31311,4.597937 10.31311,10.313087 0,5.71517 -4.59795,10.31311 -10.31311,10.31311 l -24.776593,0 c -7.458146,12.20983 -13.954781,26.57066 -19.337077,42.76166 l 20.972078,0 c 5.715159,0 10.313112,4.59794 10.313112,10.3131 0,5.71516 -4.597953,10.31311 -10.313112,10.31311 l -26.97757,0 c -4.103617,16.23252 -7.223426,33.90691 -9.244058,52.82322 l 26.16007,0 c 5.715158,0 10.313097,4.59795 10.313097,10.3131 0,5.71516 -4.597939,10.3131 -10.313097,10.3131 l -27.040468,0 c -0.283717,0 -0.571143,-0.01 -0.848937,-0.0315 -0.518016,8.30782 -0.833057,16.80272 -0.943269,25.49977 -0.177203,13.98231 0.155968,27.85124 0.974706,41.44107 l 24.839491,0 c 5.715159,0 10.313098,4.59795 10.313098,10.31311 0,5.71516 -4.597939,10.31311 -10.313098,10.31311 l -23.20449,0 c 1.732377,17.33682 4.291418,34.04709 7.70339,49.80474 l 25.562659,0 c 5.715159,0 10.31311,4.59795 10.31311,10.31311 0,5.71516 -4.597951,10.31311 -10.31311,10.31311 l -20.406117,0 c 4.16759,14.83712 9.171577,28.53109 14.998036,40.74934 l 21.506589,0 c 5.71516,0 10.3131,4.59795 10.3131,10.31311 0,5.71515 -4.59794,10.31309 -10.3131,10.31309 l -9.90435,0 c 7.05601,10.60498 14.97461,19.40717 23.77044,25.97142 l 15.62686,0 c 5.71516,0 10.31311,4.59795 10.31311,10.31311 0,0.58421 -0.0648,1.14066 -0.1572,1.69788 4.52317,0.98891 9.20375,1.50556 14.05474,1.47779 15.85913,-0.0908 58.48285,0.72318 58.48285,0.72318 0,0 -13.23415,-4.62575 -28.80123,-24.3993 l -25.53122,0 c -5.71516,0 -10.31311,-4.59794 -10.31311,-10.3131 0,-5.71516 4.59795,-10.31311 10.31311,-10.31311 l 12.04243,0 c -4.34877,-7.91948 -8.64749,-17.14862 -12.67128,-27.95229 l -24.83949,0 c -5.71516,0 -10.31311,-4.59794 -10.31311,-10.3131 0,-5.71517 4.59795,-10.3131 10.31311,-10.3131 l 18.07937,0 c -3.66619,-12.81429 -6.93091,-27.32739 -9.55848,-43.76781 l -24.61939,0 c -5.71516,0 -10.3131,-4.59795 -10.3131,-10.31311 0,-5.71515 4.59794,-10.31309 10.3131,-10.31309 l 21.75813,0 c -2.04273,-17.62897 -3.38587,-37.17807 -3.83597,-58.86017 l -25.97141,0 c -5.71516,0 -10.3131,-4.59794 -10.3131,-10.3131 0,-5.71516 4.59794,-10.31311 10.3131,-10.31311 l 25.81419,0 c 0.18494,-20.46481 1.44986,-39.01848 3.52155,-55.84168 l -21.28649,0 c -5.71516,0 -10.3131,-4.59795 -10.3131,-10.31311 0,-5.71516 4.59794,-10.3131 10.3131,-10.3131 l 24.36785,0 c 2.90179,-16.43616 6.57644,-30.98371 10.72186,-43.76781 l -19.99738,0 c -5.71515,0 -10.31309,-4.59795 -10.31309,-10.31311 0,-5.71516 4.59794,-10.31311 10.31309,-10.31311 l 27.04047,0 c 0.19975,0 0.40053,0.0204 0.5974,0.0315 3.95774,-9.39945 8.10297,-17.6008 12.2311,-24.68228 l -14.71504,0 c -5.71517,0 -10.31311,-4.59795 -10.31311,-10.31311 0,-5.715157 4.59794,-10.313107 10.31311,-10.313107 l 27.04046,0 c 0.58023,0 1.14426,0.0346 1.69788,0.12577 11.56788,-14.35543 20.50044,-19.8087 20.50044,-19.8087 0,0 -23.66417,-0.11044 -39.71173,-0.0628 z"
     id="path3015-1-6"
     inkscape:connector-curvature="0" />
  <path
     style="color:#000000;fill:#ffffff;fill-opacity:1;fill-rule:nonzero;stroke:none;stroke-width:19.89999962;marker:none;visibility:visible;display:inline;overflow:visible;enable-background:accumulate"
     d="m 255.75149,71.268193 c -52.25949,0 -94.61015,99.059317 -94.61015,221.260107 0,122.20078 42.35066,221.2601 94.61015,221.2601 52.25951,0 94.6416,-99.05932 94.6416,-221.2601 0,-122.20079 -42.38209,-221.260107 -94.6416,-221.260107 z m 0,103.634117 c 27.78256,0 50.30783,52.66075 50.30783,117.62599 0,64.96523 -22.52527,117.62598 -50.30783,117.62598 -27.78255,0 -50.27639,-52.66075 -50.27639,-117.62598 0,-64.96524 22.49384,-117.62599 50.27639,-117.62599 z"
     id="path3015"
     inkscape:connector-curvature="0" />
  <path
     style="fill:#ffffff;fill-opacity:1;stroke:none"
     d="m 229.1241,228.67372 c 0,0 9.97525,-39.73578 33.11685,-32.69269 11.48036,3.49403 27.33523,61.24125 26.96525,96.39005 -0.50308,47.79244 -13.08004,81.49868 -26.16007,90.05102 -15.04668,9.83822 -31.94548,-39.24012 -31.94548,-39.24012 0,0 11.00224,-25.85681 10.81619,-57.35092 -0.18604,-31.49411 -12.79274,-57.15734 -12.79274,-57.15734 z"
     id="path3865"
     inkscape:connector-curvature="0"
     sodipodi:nodetypes="csssczc" />
  <g
     id="spanner"
     transform="matrix(-1.9177282,-1.988248,1.988248,-1.9177282,454.32425,555.26728)"
     style="fill:#ffffff;stroke:#ffffff;stroke-width:2.34710145;stroke-linecap:round;stroke-linejoin:round;stroke-miterlimit:4;stroke-opacity:1;stroke-dasharray:none">
    <use
       height="580"
       width="580"
       y="0"
       x="0"
       xlink:href="#outline1-1"
       class="outline-big"
       id="use4649"
       style="fill:#ffffff;stroke:#ffffff;stroke-width:2.34710145;stroke-linecap:round;stroke-linejoin:round;stroke-miterlimit:4;stroke-opacity:1;stroke-dasharray:none" />
    <use
       height="580"
       width="580"
       y="0"
       x="0"
       xlink:href="#outline1-1"
       class="outline-small"
       id="use4651"
       style="fill:#ffffff;stroke:#ffffff;stroke-width:2.34710145;stroke-linecap:round;stroke-linejoin:round;stroke-miterlimit:4;stroke-opacity:1;stroke-dasharray:none" />
    <use
       height="580"
       width="580"
       y="0"
       x="0"
       xlink:href="#outline1-1"
       class="aluminium4"
       id="use4653"
       style="fill:#ffffff;stroke:#ffffff;stroke-width:2.34710145;stroke-linecap:round;stroke-linejoin:round;stroke-miterlimit:4;stroke-opacity:1;stroke-dasharray:none" />
    <use
       height="580"
       width="580"
       y="0"
       x="0"
       class="stroke-highlight"
       xlink:href="#outline1-1"
       clip-path="url(#clipoutline1-8)"
       style="fill:#ffffff;stroke:#ffffff;stroke-width:2.34710145;stroke-linecap:round;stroke-linejoin:round;stroke-miterlimit:4;stroke-opacity:1;stroke-dasharray:none"
       id="use4655" />
    <path
       inkscape:connector-curvature="0"
       class="high-specularity"
       style="fill:#ffffff;stroke:#ffffff;stroke-width:2.34710145;stroke-linecap:round;stroke-linejoin:round;stroke-miterlimit:4;stroke-opacity:1;stroke-dasharray:none"
       d="M 24.33,15.4 37.78,28.78 34.45,40.47 23.5,43.74 9.9319417,30 5.2,34.54 19.4,54.48 38.3,50.34 100.8,116.7 c 7.5,8.3 20.2,-2.67 11.14,-11.6 L 45.04,42 48.9,24.83 28.94,10.8 24.33,15.4 z m 79.97,93.3 c 1.67,-1.67 4.63,-2 6.3,-0.3 1.7,1.67 3.06,4.63 0.65,7.84 -2,2 -5.2,1.92 -7.2,-0.24 -1.68,-1.68 -1.45,-5.6 0.25,-7.3 z"
       id="path4657" />
    <path
       inkscape:connector-curvature="0"
       class="specularity"
       style="fill:#ffffff;stroke:#ffffff;stroke-width:2.34710145;stroke-linecap:round;stroke-linejoin:round;stroke-miterlimit:4;stroke-opacity:1;stroke-dasharray:none"
       d="M 24.2,15.42 47.67,39.07 50.89,25.2 28.79,10.8 24.2,15.42 z"
       id="path4659" />
  </g>
</svg>

<svg width="580" height="580" viewBox="0 0 580 580" fill="none" xmlns="http://www.w3.org/2000/svg">
<g clip-path="url(#clip0)">
<path d="M66.775 1.2679C25.44 1.2679 2.20398 22.6389 2.20398 66.3039V516.427C2.20398 557.271 23.098 578.656 64.396 578.656H516.42C557.727 578.656 578.649 558.34 578.649 516.427V66.3039C578.649 23.7029 557.727 1.2679 515.127 1.2679C515.124 1.2679 66.633 1.1249 66.775 1.2679V1.2679Z" fill="#111111" stroke="#EEEEEE" stroke-width="3.408"/>
<path d="M169.497 71.1499C166.869 71.1569 164.474 71.196 162.391 71.2127C161.293 75.7324 157.259 79.0733 152.392 79.0733H127.521C119.147 83.4809 111.318 89.6969 104.097 97.53H113.498C119.213 97.53 123.811 102.128 123.811 107.843C123.811 113.558 119.213 118.156 113.498 118.156H88.7215C81.2634 130.366 74.7667 144.727 69.3844 160.918H90.3565C96.0717 160.918 100.67 165.516 100.67 171.231C100.67 176.946 96.0717 181.544 90.3565 181.544H63.379C59.2753 197.777 56.1555 215.451 54.1349 234.367H80.295C86.0101 234.367 90.6081 238.965 90.6081 244.68C90.6081 250.396 86.0101 254.993 80.295 254.993H53.2545C52.9708 254.993 52.6834 254.983 52.4056 254.962C51.8875 263.27 51.5725 271.765 51.4623 280.462C51.2851 294.444 51.6183 308.313 52.437 321.903H77.2765C82.9916 321.903 87.5896 326.501 87.5896 332.216C87.5896 337.931 82.9916 342.529 77.2765 342.529H54.072C55.8044 359.866 58.3634 376.576 61.7754 392.334H87.3381C93.0532 392.334 97.6512 396.932 97.6512 402.647C97.6512 408.362 93.0532 412.96 87.3381 412.96H66.9319C71.0995 427.797 76.1035 441.491 81.93 453.709H103.437C109.152 453.709 113.75 458.307 113.75 464.022C113.75 469.738 109.152 474.336 103.437 474.336H93.5322C100.588 484.94 108.507 493.743 117.303 500.307H132.93C138.645 500.307 143.243 504.905 143.243 510.62C143.243 511.204 143.178 511.761 143.085 512.318C147.609 513.307 152.289 513.823 157.14 513.796C172.999 513.705 215.623 514.519 215.623 514.519C215.623 514.519 202.389 509.893 186.822 490.12H161.291C155.575 490.12 150.977 485.522 150.977 479.806C150.977 474.091 155.575 469.493 161.291 469.493H173.333C168.984 461.574 164.686 452.345 160.662 441.541H135.822C130.107 441.541 125.509 436.943 125.509 431.228C125.509 425.513 130.107 420.915 135.822 420.915H153.902C150.235 408.101 146.971 393.588 144.343 377.147H119.724C114.009 377.147 109.411 372.549 109.411 366.834C109.411 361.119 114.009 356.521 119.724 356.521H141.482C139.439 338.892 138.096 319.343 137.646 297.661H111.674C105.959 297.661 101.361 293.063 101.361 287.348C101.361 281.632 105.959 277.035 111.674 277.035H137.489C137.674 256.57 138.939 238.016 141.01 221.193H119.724C114.009 221.193 109.411 216.595 109.411 210.88C109.411 205.165 114.009 200.567 119.724 200.567H144.092C146.993 184.13 150.668 169.583 154.813 156.799H134.816C129.101 156.799 124.503 152.201 124.503 146.486C124.503 140.771 129.101 136.173 134.816 136.173H161.857C162.056 136.173 162.257 136.193 162.454 136.204C166.412 126.805 170.557 118.603 174.685 111.522H159.97C154.255 111.522 149.657 106.924 149.657 101.209C149.657 95.4935 154.255 90.8956 159.97 90.8956H187.01C187.591 90.8956 188.155 90.9302 188.708 91.0214C200.276 76.6659 209.209 71.2127 209.209 71.2127C209.209 71.2127 185.545 71.1022 169.497 71.1499V71.1499Z" fill="white"/>
<path d="M255.752 71.2683C203.492 71.2683 161.141 170.328 161.141 292.528C161.141 414.729 203.492 513.789 255.752 513.789C308.011 513.789 350.393 414.729 350.393 292.528C350.393 170.328 308.011 71.2683 255.752 71.2683V71.2683ZM255.752 174.902C283.534 174.902 306.059 227.563 306.059 292.528C306.059 357.494 283.534 410.154 255.752 410.154C227.969 410.154 205.475 357.494 205.475 292.528C205.475 227.563 227.969 174.902 255.752 174.902V174.902Z" fill="white"/>
<path d="M229.124 228.674C229.124 228.674 239.099 188.938 262.241 195.981C273.721 199.475 289.576 257.222 289.206 292.371C288.703 340.164 276.126 373.87 263.046 382.422C248 392.26 231.101 343.182 231.101 343.182C231.101 343.182 242.103 317.325 241.917 285.831C241.731 254.337 229.124 228.674 229.124 228.674V228.674Z" fill="white"/>
<path d="M438.285 477.36L439.094 424.959L468.723 409.162L496.224 424.662L494.925 477.988L513.026 478.69L525.44 412.217L480.964 382.579L493.046 131.053C495.165 100.224 448.999 96.0106 448.619 131.149L451.456 385.172L409.916 410.425L420.298 477.016L438.285 477.36ZM470.428 139.436C463.905 139.318 457.572 134.066 457.75 127.485C457.81 120.903 461.087 112.522 472.091 111.158C479.903 111.299 485.881 117.815 485.421 125.933C485.303 132.496 477.068 139.556 470.428 139.436V139.436Z" fill="white" stroke="white" stroke-width="6.48361" stroke-linecap="round" stroke-linejoin="round"/>
<path d="M438.574 477.58L440.587 385.562L406.835 405.759L420.586 477.314L438.574 477.58Z" fill="white" stroke="white" stroke-width="6.48361" stroke-linecap="round" stroke-linejoin="round"/>
</g>
<defs>
<clipPath id="clip0">
<path d="M0 0H580V580H0V0Z" fill="white"/>
</clipPath>
</defs>
</svg>
